X: 28152
T: Mrs Jamieson's Favourite
R: waltz
M: 3/4
K: Amajor
|:"A"E2AB c3E|"F#m"F2EF "A"A3E|"A"E2Ac c2ef|e2c=c "E"B2zE|
"A"E2AB c3E|"F#m"F2EF "A"A3E|EABc c2ef|1 "A"c2B2 A2zE:|2 "A"c2B2 A2zB||
|:"A"ee2A "F#m"ff2A|"A"eE[F2A2][F2A2]zA|"A"ee2A "F#m"ff2A|a2cB "Bm"B2 cd|
"A"eAAA ABcA|"F#m"F2EF "A"A3E|"E"EABc "A"c2ef|1 c2B2 A3B:|2 c2B2 A3E||

